svg/emoji_u1f983.svg

<svg width="128" height="128" viewBox="0 0 128 128" fill="none" xmlns="http://www.w3.org/2000/svg">
<path d="M45.4102 99.05C45.4102 99.05 45.9702 106.23 45.4102 107.07C44.8502 107.91 40.6202 108.34 37.3902 111.43C34.7202 113.98 35.2802 116.92 38.3802 116.64C41.4802 116.36 45.0002 113.54 48.8002 112.84C52.6002 112.14 58.3702 112.56 58.3702 110.17C58.3702 107.78 53.3002 107.21 53.3002 107.21V100.31L59.7802 100.87L59.5002 112.7C59.5002 112.7 52.4602 115.23 50.3502 116.92C48.2402 118.61 46.4102 121.28 47.9602 122.83C49.5102 124.38 53.0302 122.27 54.5802 121.84C56.1302 121.42 60.9202 119.17 64.2902 118.74C67.6702 118.32 73.8602 119.16 74.5702 117.47C75.2702 115.78 73.3002 113.95 70.6302 113.11C67.9602 112.27 67.9602 112.27 67.9602 112.27V98.34L45.4102 99.05Z" fill="#F2BC1A" style="fill:#F2BC1A;fill:color(display-p3 0.9490 0.7373 0.1020);fill-opacity:1;"/>
<path d="M47.3802 43.8599C47.3802 43.8599 43.6401 42.0399 43.4401 35.6899C43.3001 31.1899 46.4002 28.2299 46.4002 28.2299C46.4002 28.2299 45.1302 24.1499 47.8102 20.3499C50.4902 16.5499 52.8802 16.6899 52.8802 16.6899C52.8802 16.6899 52.8802 11.8999 56.9602 9.36995C61.0401 6.83995 64.2801 9.22994 64.2801 9.22994C64.2801 9.22994 65.9702 5.14994 70.4702 4.86994C74.9702 4.58994 76.3801 7.25995 76.3801 7.25995C76.3801 7.25995 79.3401 3.31995 83.7001 4.58995C88.0602 5.85995 88.7701 9.37995 88.7701 9.37995C88.7701 9.37995 92.5702 5.85995 97.2202 8.95995C101.87 12.0599 100.74 16.1399 100.74 16.1399C100.74 16.1399 105.38 13.8799 109.75 18.2499C112.99 21.4899 111.02 25.7099 111.02 25.7099C111.02 25.7099 115.23 25.9499 116.93 30.6399C118.62 35.2899 115.1 38.6599 115.1 38.6599C115.1 38.6599 119.29 39.1199 120.45 44.2899C121.72 49.9199 117.35 53.1599 117.35 53.1599C117.35 53.1599 119.88 55.4099 119.04 61.1799C118.3 66.2099 113.13 68.2199 113.13 68.2199C113.13 68.2199 115.1 71.6899 112.57 76.1999C110.04 80.6999 104.69 80.4699 104.69 80.4699C104.69 80.4699 104.35 83.6299 102.02 85.9599C99.0602 88.9199 94.9802 87.6499 94.9802 87.6499L46.4002 53.1499L47.3802 43.8599Z" fill="#FFEAC9" style="fill:#FFEAC9;fill:color(display-p3 1.0000 0.9176 0.7882);fill-opacity:1;"/>
<path d="M81.4498 67.79L95.8198 79.82L99.6098 83C99.6098 83 103.69 82.86 106.51 78.78C108.51 75.88 107.07 71.88 107.07 71.88C107.07 71.88 112.14 71.18 113.69 65.4C115.24 59.63 112.42 56.95 112.42 56.95C112.42 56.95 116.57 55.69 116.57 49.91C116.57 44.63 111.85 43.57 111.85 43.57C111.85 43.57 116.28 41.95 114.81 37.09C113.5 32.78 109.04 33.01 109.04 33.01C109.04 33.01 111.64 28.51 108.34 24.7C105.53 21.47 101.58 23.29 101.58 23.29C101.58 23.29 102.28 19.21 99.3298 16.81C96.3798 14.41 92.7098 16.25 92.7098 16.25C92.7098 16.25 92.8498 12.03 89.3298 11.04C85.8098 10.05 83.9798 11.88 83.9798 11.88C83.9798 11.88 81.8698 8.63999 78.3498 8.91999C74.8298 9.19999 73.4198 11.74 73.4198 11.74C73.4198 11.74 71.3098 9.20999 67.5098 10.05C63.4698 10.95 63.2898 14.55 63.2898 14.55C63.2898 14.55 60.0298 12.96 57.3798 14.55C53.8598 16.66 54.4198 20.74 54.4198 20.74C54.4198 20.74 50.4798 21.3 48.9298 24.12C46.8898 27.82 48.7898 31.44 48.7898 31.44L49.3498 41.15L81.4498 67.79Z" fill="#4D4D4D" style="fill:#4D4D4D;fill:color(display-p3 0.3020 0.3020 0.3020);fill-opacity:1;"/>
<path d="M97.9199 79.48C97.9199 79.48 101.86 79.06 102.99 75.68C104.12 72.3 102.57 70.05 102.57 70.05C102.57 70.05 107.64 68.5 108.76 63.86C109.88 59.22 106.93 55.69 106.93 55.69C106.93 55.69 111.86 50.62 109.89 45.69C107.92 40.76 103.55 39.64 103.55 39.64C103.55 39.64 106.11 34.63 104.54 31.47C102.29 26.97 96.3699 27.25 96.3699 27.25C96.3699 27.25 97.8899 22.53 92.5199 19.63C87.8599 17.11 83.8399 20 83.8399 20C83.8399 20 81.5899 15.28 76.2399 15.28C70.8899 15.28 69.0599 20.21 69.0599 20.21C69.0599 20.21 64.5599 17.25 60.3299 19.79C56.0999 22.33 56.2499 27.25 56.2499 27.25C56.2499 27.25 51.3199 26.97 47.5199 31.9C44.5999 35.69 46.3899 42.6 46.3899 42.6L32.5999 53.44C32.5999 53.44 32.4099 51.56 31.3299 49.64C30.2499 47.72 33.9099 36.45 33.9099 36.45C33.9099 36.45 17.2499 43.86 15.1399 47.67C13.0299 51.47 11.5399 58.07 11.8999 64.56C12.3899 73.36 17.2499 86.38 26.6799 93.28C37.1399 100.93 46.6099 104.76 61.4499 104.54C80.5999 104.26 89.3199 99.19 91.7199 98.2C94.1199 97.21 97.9199 79.48 97.9199 79.48Z" fill="#845B52" style="fill:#845B52;fill:color(display-p3 0.5176 0.3569 0.3216);fill-opacity:1;"/>
<path d="M29.92 40.48C29.92 40.48 34.99 35.98 36.54 33.86C38.09 31.75 41.67 26.39 40.48 17.39C39.5 9.93005 32.33 5.81005 26.78 7.07005C23.68 7.77005 19.79 14.86 19.22 17.11C18.65 19.36 22.18 28.51 22.18 28.51L29.92 40.48Z" fill="url(#paint0_radial_1015_2272)" style=""/>
<path d="M29.3602 23.0301C31.3816 23.0301 33.0202 21.3287 33.0202 19.2301C33.0202 17.1314 31.3816 15.4301 29.3602 15.4301C27.3388 15.4301 25.7002 17.1314 25.7002 19.2301C25.7002 21.3287 27.3388 23.0301 29.3602 23.0301Z" fill="#000306" style="fill:#000306;fill:color(display-p3 0.0000 0.0118 0.0235);fill-opacity:1;"/>
<path d="M17.1101 15.85C15.9801 17.4 14.5801 19.22 13.1701 20.64C11.0601 22.75 8.81006 25.14 8.95006 25.99C9.17006 27.3 11.6001 26.39 13.1701 25.57C16.1301 24.02 17.8201 23.32 18.8001 23.32C19.7901 23.32 20.2101 24.02 21.0501 23.46C21.8901 22.9 23.1601 20.5 23.0201 19.66C22.8801 18.82 19.4101 17.55 18.7001 17.13C18.0101 16.69 17.1101 15.85 17.1101 15.85Z" fill="#898484" style="fill:#898484;fill:color(display-p3 0.5373 0.5176 0.5176);fill-opacity:1;"/>
<path d="M27.5302 6.79003C28.4002 7.00003 24.4302 8.74003 23.4502 12.95C22.5802 16.68 21.6202 20.27 18.5202 18.71C14.3902 16.63 17.4602 10.85 18.6602 9.52003C20.3502 7.65003 23.5902 5.86003 27.5302 6.79003Z" fill="#A22911" style="fill:#A22911;fill:color(display-p3 0.6353 0.1608 0.0667);fill-opacity:1;"/>
<path d="M23.0702 20.13C22.9302 18.6 21.1702 19.29 20.8902 20.82C20.6102 22.35 20.4002 22.96 19.8302 24.03C19.2702 25.1 13.4902 30.07 12.5102 31.45C11.5302 32.83 9.46015 36.1 11.2402 39.1C12.7902 41.7 18.1402 40.94 18.1402 40.94L24.6202 31.76C24.6202 31.76 23.6302 28.24 23.4902 26.71C23.3602 25.18 23.2102 21.66 23.0702 20.13Z" fill="#A22911" style="fill:#A22911;fill:color(display-p3 0.6353 0.1608 0.0667);fill-opacity:1;"/>
<path d="M28.4402 30.88C31.0102 34.01 31.2402 37.53 30.7902 40.34C30.3302 43.15 28.9102 49.38 22.8702 54.46C19.7402 57.1 13.2402 58.77 9.49023 54.86C5.06023 50.23 12.5102 43.92 13.6602 42.38C14.8102 40.84 19.5002 37.03 21.0202 33.32C21.9702 31.01 23.3602 26.17 23.3602 26.17C23.3602 26.17 26.3802 28.37 28.4402 30.88Z" fill="#FF2219" style="fill:#FF2219;fill:color(display-p3 1.0000 0.1333 0.0980);fill-opacity:1;"/>
<path d="M94.5399 75.4C94.5399 75.4 97.8499 74.6 98.8599 72.3C100.17 69.3 98.6699 67.23 98.6699 67.23C98.6699 67.23 104.02 66.48 104.49 61.32C104.86 57.25 101.77 55.22 101.77 55.22C101.77 55.22 105.52 52.59 104.87 48.46C104.01 43.04 98.8599 42.83 98.8599 42.83C98.8599 42.83 103.08 39.55 99.7999 34.48C97.6999 31.25 92.6699 32.13 92.6699 32.13C92.6699 32.13 94.5499 27.53 90.1399 25.09C85.9199 22.75 82.2599 26.5 82.2599 26.5C82.2599 26.5 82.3599 21.78 76.6299 21.24C71.6599 20.77 70.1499 25.84 70.1499 25.84C70.1499 25.84 66.8699 22.84 62.3599 25C58.2299 26.97 58.6099 31.76 58.6099 31.76C58.6099 31.76 54.2399 30.86 51.3799 33.45C48.3799 36.17 49.4599 41.71 49.4599 41.71C49.4599 41.71 29.2199 52.78 28.0899 54C26.9599 55.22 20.1099 64.98 24.5199 76.43C28.9299 87.88 41.2099 93.61 52.4999 87.22C60.2899 82.81 65.4499 72.49 67.6999 69.29C69.9499 66.1 72.9599 65.25 72.9599 65.25L94.5399 75.4Z" fill="#B79277" style="fill:#B79277;fill:color(display-p3 0.7176 0.5725 0.4667);fill-opacity:1;"/>
<path d="M64.3198 67.04C64.3198 67.04 70.6098 66.2001 75.9598 68.7301C81.3098 71.26 87.2198 76.33 89.9398 82.34C92.6598 88.35 92.3798 97.92 92.3798 97.92C92.3798 97.92 100.92 98.39 101.2 89.75C101.4 83.75 98.4798 81.02 98.4798 81.02C98.4798 81.02 100.92 77.92 96.8798 73.04C94.4698 70.13 90.4498 68.7 90.4498 68.7C90.4498 68.7 87.4398 64.96 81.1598 63.7C72.7198 62.02 64.3198 67.04 64.3198 67.04Z" fill="#FAEACB" style="fill:#FAEACB;fill:color(display-p3 0.9804 0.9176 0.7961);fill-opacity:1;"/>
<path d="M52.2101 41.23C52.2101 41.23 52.6401 36.51 56.9001 35.04C62.3401 33.16 65.1601 36.26 65.1601 36.26C65.1601 36.26 67.6901 31.09 73.9801 31.47C80.9501 31.89 82.0001 38.79 82.0001 38.79C82.0001 38.79 88.1901 37.12 91.8501 42.66C95.5101 48.2 91.7101 53.9 91.7101 53.9C91.7101 53.9 96.8801 55.45 96.7801 61.64C96.6901 67.51 93.2601 70.04 93.2601 70.04C93.2601 70.04 91.7101 69.12 90.5901 69.05C89.5101 68.44 83.3601 63.65 77.6401 63.56C71.9101 63.47 67.0301 65.62 64.3101 67.03C61.5901 68.44 51.1701 76.04 49.5801 76.98C47.9901 77.92 37.3801 84.58 29.6801 74.82C21.9801 65.06 27.4501 52.8 31.9301 48.73C37.0101 44.14 43.9601 41.33 52.2101 41.23Z" fill="#4D4D4D" style="fill:#4D4D4D;fill:color(display-p3 0.3020 0.3020 0.3020);fill-opacity:1;"/>
<path d="M43.6701 57.28C44.0101 58.56 46.8802 61.67 54.7002 64.41C57.7502 65.48 64.3401 67.01 64.3401 67.01C64.3401 67.01 68.2101 65.32 70.6001 64.5C71.3901 64.23 76.0901 63.42 76.0901 63.42C76.9301 63.71 65.7001 62.27 58.4201 60.39C52.1701 58.78 43.1601 55.31 43.6701 57.28Z" fill="#000306" style="fill:#000306;fill:color(display-p3 0.0000 0.0118 0.0235);fill-opacity:1;"/>
<path d="M91.4902 87.36C91.4902 87.36 93.2302 86.86 96.3002 87.01C98.7602 87.13 101.23 87.5 101.3 88.91C101.37 90.32 99.0502 89.75 96.0202 89.75C93.0402 89.75 91.9102 90.13 91.9102 90.13L91.4902 87.36Z" fill="#B49075" style="fill:#B49075;fill:color(display-p3 0.7059 0.5647 0.4588);fill-opacity:1;"/>
<path d="M89.0099 80.65C89.0099 80.65 91.7299 80.18 93.5599 80.04C95.3899 79.9 99.1399 80.02 99.1399 78.68C99.1399 77.34 94.5399 77.13 92.7299 77.27C90.1799 77.47 87.3599 78.07 87.3599 78.07L89.0099 80.65Z" fill="#B49075" style="fill:#B49075;fill:color(display-p3 0.7059 0.5647 0.4588);fill-opacity:1;"/>
<path d="M83.4702 73.8C83.4702 73.8 85.3202 71.8 88.0702 71.55C90.6502 71.32 94.4502 71.67 93.7502 70.33C93.0502 68.99 89.4102 68.76 87.7902 68.88C82.3902 69.26 80.9902 71.84 80.9902 71.84L83.4702 73.8Z" fill="#B49075" style="fill:#B49075;fill:color(display-p3 0.7059 0.5647 0.4588);fill-opacity:1;"/>
<defs>
<radialGradient id="paint0_radial_1015_2272" cx="0" cy="0" r="1" gradientUnits="userSpaceOnUse" gradientTransform="translate(25.8636 20.3434) rotate(-36.7599) scale(14.7785 12.6331)">
<stop offset="0.2058" stop-color="#5EA4CE" style="stop-color:#5EA4CE;stop-color:color(display-p3 0.3686 0.6431 0.8078);stop-opacity:1;"/>
<stop offset="0.5056" stop-color="#988AA4" style="stop-color:#988AA4;stop-color:color(display-p3 0.5961 0.5412 0.6431);stop-opacity:1;"/>
<stop offset="1" stop-color="#FE5D5A" style="stop-color:#FE5D5A;stop-color:color(display-p3 0.9961 0.3647 0.3529);stop-opacity:1;"/>
</radialGradient>
</defs>
</svg>

<?xml version="1.0" encoding="utf-8"?>
<!-- Generator: Adobe Illustrator 24.1.2, SVG Export Plug-In . SVG Version: 6.00 Build 0)  -->
<svg version="1.1" id="Layer_2" xmlns="http://www.w3.org/2000/svg" xmlns:xlink="http://www.w3.org/1999/xlink" x="0px" y="0px"
	 viewBox="0 0 128 128" style="enable-background:new 0 0 128 128;" xml:space="preserve">
<path style="fill:#858585;" d="M45.41,99.05c0,0,0.56,7.18,0,8.02c-0.56,0.84-4.79,1.27-8.02,4.36c-2.67,2.55-2.11,5.49,0.99,5.21
	c3.1-0.28,6.62-3.1,10.42-3.8c3.8-0.7,9.57-0.28,9.57-2.67s-5.07-2.96-5.07-2.96v-6.9l6.48,0.56l-0.28,11.83
	c0,0-7.04,2.53-9.15,4.22c-2.11,1.69-3.94,4.36-2.39,5.91c1.55,1.55,5.07-0.56,6.62-0.99c1.55-0.42,6.34-2.67,9.71-3.1
	c3.38-0.42,9.57,0.42,10.28-1.27c0.7-1.69-1.27-3.52-3.94-4.36s-2.67-0.84-2.67-0.84V98.34L45.41,99.05z"/>
<path style="fill:#FFEAC9;" d="M47.38,43.86c0,0-3.74-1.82-3.94-8.17c-0.14-4.5,2.96-7.46,2.96-7.46s-1.27-4.08,1.41-7.88
	s5.07-3.66,5.07-3.66s0-4.79,4.08-7.32s7.32-0.14,7.32-0.14s1.69-4.08,6.19-4.36c4.5-0.28,5.91,2.39,5.91,2.39s2.96-3.94,7.32-2.67
	c4.36,1.27,5.07,4.79,5.07,4.79s3.8-3.52,8.45-0.42c4.65,3.1,3.52,7.18,3.52,7.18s4.64-2.26,9.01,2.11
	c3.24,3.24,1.27,7.46,1.27,7.46s4.21,0.24,5.91,4.93c1.69,4.65-1.83,8.02-1.83,8.02s4.19,0.46,5.35,5.63
	c1.27,5.63-3.1,8.87-3.1,8.87s2.53,2.25,1.69,8.02c-0.74,5.03-5.91,7.04-5.91,7.04s1.97,3.47-0.56,7.98
	c-2.53,4.5-7.88,4.27-7.88,4.27s-0.34,3.16-2.67,5.49c-2.96,2.96-7.04,1.69-7.04,1.69L46.4,53.15L47.38,43.86z"/>
<path style="fill:#4D4D4D;" d="M81.45,67.79l14.37,12.03L99.61,83c0,0,4.08-0.14,6.9-4.22c2-2.9,0.56-6.9,0.56-6.9
	s5.07-0.7,6.62-6.48c1.55-5.77-1.27-8.45-1.27-8.45s4.15-1.26,4.15-7.04c0-5.28-4.72-6.34-4.72-6.34s4.43-1.62,2.96-6.48
	c-1.31-4.31-5.77-4.08-5.77-4.08s2.6-4.5-0.7-8.31c-2.81-3.23-6.76-1.41-6.76-1.41s0.7-4.08-2.25-6.48s-6.62-0.56-6.62-0.56
	s0.14-4.22-3.38-5.21c-3.52-0.99-5.35,0.84-5.35,0.84s-2.11-3.24-5.63-2.96c-3.52,0.28-4.93,2.82-4.93,2.82s-2.11-2.53-5.91-1.69
	c-4.04,0.9-4.22,4.5-4.22,4.5s-3.26-1.59-5.91,0c-3.52,2.11-2.96,6.19-2.96,6.19s-3.94,0.56-5.49,3.38
	c-2.04,3.7-0.14,7.32-0.14,7.32l0.56,9.71L81.45,67.79z"/>
<path style="fill:#845B52;" d="M97.92,79.48c0,0,3.94-0.42,5.07-3.8c1.13-3.38-0.42-5.63-0.42-5.63s5.07-1.55,6.19-6.19
	s-1.83-8.17-1.83-8.17s4.93-5.07,2.96-10s-6.34-6.05-6.34-6.05s2.56-5.01,0.99-8.17c-2.25-4.5-8.17-4.22-8.17-4.22
	s1.52-4.72-3.85-7.62C87.86,17.11,83.84,20,83.84,20s-2.25-4.72-7.6-4.72c-5.35,0-7.18,4.93-7.18,4.93s-4.5-2.96-8.73-0.42
	s-4.08,7.46-4.08,7.46s-4.93-0.28-8.73,4.65c-2.92,3.79-1.13,10.7-1.13,10.7L32.6,53.44c0,0-0.19-1.88-1.27-3.8
	c-1.08-1.92,2.58-13.19,2.58-13.19s-16.66,7.41-18.77,11.22c-2.11,3.8-3.6,10.4-3.24,16.89c0.49,8.8,5.35,21.82,14.78,28.72
	c10.46,7.65,19.93,11.48,34.77,11.26c19.15-0.28,27.87-5.35,30.27-6.34S97.92,79.48,97.92,79.48z"/>
<radialGradient id="SVGID_1_" cx="25.8632" cy="20.3452" r="14.7776" gradientTransform="matrix(0.8012 -0.5985 0.5116 0.6849 -5.2666 21.8881)" gradientUnits="userSpaceOnUse">
	<stop  offset="0.2058" style="stop-color:#5EA4CE"/>
	<stop  offset="0.5056" style="stop-color:#988AA4"/>
	<stop  offset="1" style="stop-color:#FE5D5A"/>
</radialGradient>
<path style="fill:url(#SVGID_1_);" d="M29.92,40.48c0,0,5.07-4.5,6.62-6.62c1.55-2.11,5.13-7.47,3.94-16.47
	C39.5,9.93,32.33,5.81,26.78,7.07c-3.1,0.7-6.99,7.79-7.56,10.04s2.96,11.4,2.96,11.4L29.92,40.48z"/>
<ellipse style="fill:#000306;" cx="29.36" cy="19.23" rx="3.66" ry="3.8"/>
<path style="fill:#898484;" d="M17.11,15.85c-1.13,1.55-2.53,3.37-3.94,4.79c-2.11,2.11-4.36,4.5-4.22,5.35
	c0.22,1.31,2.65,0.4,4.22-0.42c2.96-1.55,4.65-2.25,5.63-2.25c0.99,0,1.41,0.7,2.25,0.14c0.84-0.56,2.11-2.96,1.97-3.8
	s-3.61-2.11-4.32-2.53C18.01,16.69,17.11,15.85,17.11,15.85z"/>
<path style="fill:#A22911;" d="M27.53,6.79c0.87,0.21-3.1,1.95-4.08,6.16c-0.87,3.73-1.83,7.32-4.93,5.76
	c-4.13-2.08-1.06-7.86,0.14-9.19C20.35,7.65,23.59,5.86,27.53,6.79z"/>
<path style="fill:#A22911;" d="M23.07,20.13c-0.14-1.53-1.9-0.84-2.18,0.69c-0.28,1.53-0.49,2.14-1.06,3.21
	c-0.56,1.07-6.34,6.04-7.32,7.42s-3.05,4.65-1.27,7.65c1.55,2.6,6.9,1.84,6.9,1.84l6.48-9.18c0,0-0.99-3.52-1.13-5.05
	C23.36,25.18,23.21,21.66,23.07,20.13z"/>
<path style="fill:#FF2219;" d="M28.44,30.88c2.57,3.13,2.8,6.65,2.35,9.46c-0.46,2.81-1.88,9.04-7.92,14.12
	c-3.13,2.64-9.63,4.31-13.38,0.4c-4.43-4.63,3.02-10.94,4.17-12.48s5.84-5.35,7.36-9.06c0.95-2.31,2.34-7.15,2.34-7.15
	S26.38,28.37,28.44,30.88z"/>
<path style="fill:#B79277;" d="M94.54,75.4c0,0,3.31-0.8,4.32-3.1c1.31-3-0.19-5.07-0.19-5.07s5.35-0.75,5.82-5.91
	c0.37-4.07-2.72-6.1-2.72-6.1s3.75-2.63,3.1-6.76c-0.86-5.42-6.01-5.63-6.01-5.63s4.22-3.28,0.94-8.35
	c-2.1-3.23-7.13-2.35-7.13-2.35s1.88-4.6-2.53-7.04c-4.22-2.34-7.88,1.41-7.88,1.41s0.1-4.72-5.63-5.26
	c-4.97-0.47-6.48,4.6-6.48,4.6s-3.28-3-7.79-0.84c-4.13,1.97-3.75,6.76-3.75,6.76s-4.37-0.9-7.23,1.69c-3,2.72-1.92,8.26-1.92,8.26
	S29.22,52.78,28.09,54c-1.13,1.22-7.98,10.98-3.57,22.43S41.21,93.61,52.5,87.22c7.79-4.41,12.95-14.73,15.2-17.93
	c2.25-3.19,5.26-4.04,5.26-4.04L94.54,75.4z"/>
<path style="fill:#FAEACB;" d="M64.32,67.04c0,0,6.29-0.84,11.64,1.69c5.35,2.53,11.26,7.6,13.98,13.61
	c2.72,6.01,2.44,15.58,2.44,15.58s8.54,0.47,8.82-8.17c0.2-6-2.72-8.73-2.72-8.73s2.44-3.1-1.6-7.98c-2.41-2.91-6.43-4.34-6.43-4.34
	s-3.01-3.74-9.29-5C72.72,62.02,64.32,67.04,64.32,67.04z"/>
<path style="fill:#4D4D4D;" d="M52.21,41.23c0,0,0.43-4.72,4.69-6.19c5.44-1.88,8.26,1.22,8.26,1.22s2.53-5.17,8.82-4.79
	c6.97,0.42,8.02,7.32,8.02,7.32s6.19-1.67,9.85,3.87c3.66,5.54-0.14,11.24-0.14,11.24s5.17,1.55,5.07,7.74
	c-0.09,5.87-3.52,8.4-3.52,8.4s-1.55-0.92-2.67-0.99c-1.08-0.61-7.23-5.4-12.95-5.49c-5.73-0.09-10.61,2.06-13.33,3.47
	c-2.72,1.41-13.14,9.01-14.73,9.95s-12.2,7.6-19.9-2.16s-2.23-22.02,2.25-26.09C37.01,44.14,43.96,41.33,52.21,41.23z"/>
<path style="fill:#000306;" d="M43.67,57.28c0.34,1.28,3.21,4.39,11.03,7.13c3.05,1.07,9.64,2.6,9.64,2.6s3.87-1.69,6.26-2.51
	c0.79-0.27,5.49-1.08,5.49-1.08c0.84,0.29-10.39-1.15-17.67-3.03C52.17,58.78,43.16,55.31,43.67,57.28z"/>
<path style="fill:#B49075;" d="M91.49,87.36c0,0,1.74-0.5,4.81-0.35c2.46,0.12,4.93,0.49,5,1.9s-2.25,0.84-5.28,0.84
	c-2.98,0-4.11,0.38-4.11,0.38L91.49,87.36z"/>
<path style="fill:#B49075;" d="M89.01,80.65c0,0,2.72-0.47,4.55-0.61c1.83-0.14,5.58-0.02,5.58-1.36c0-1.34-4.6-1.55-6.41-1.41
	c-2.55,0.2-5.37,0.8-5.37,0.8L89.01,80.65z"/>
<path style="fill:#B49075;" d="M83.47,73.8c0,0,1.85-2,4.6-2.25c2.58-0.23,6.38,0.12,5.68-1.22c-0.7-1.34-4.34-1.57-5.96-1.45
	c-5.4,0.38-6.8,2.96-6.8,2.96L83.47,73.8z"/>
</svg>
